SVG/comments-o.svg

<?xml version="1.0" encoding="utf-8"?>
<!-- Generated by IcoMoon.io -->
<!DOCTYPE svg PUBLIC "-//W3C//DTD SVG 1.1//EN" "http://www.w3.org/Graphics/SVG/1.1/DTD/svg11.dtd">
<svg version="1.1" xmlns="http://www.w3.org/2000/svg" xmlns:xlink="http://www.w3.org/1999/xlink" width="14" height="14" viewBox="0 0 14 14">
<path fill="#444444" d="M5.5 3q-1.195 0-2.234 0.406t-1.652 1.102-0.613 1.492q0 0.641 0.414 1.234t1.164 1.031l0.758 0.438-0.273 0.656q0.266-0.156 0.484-0.305l0.344-0.242 0.414 0.078q0.609 0.109 1.195 0.109 1.195 0 2.234-0.406t1.652-1.102 0.613-1.492-0.613-1.492-1.652-1.102-2.234-0.406zM5.5 2q1.492 0 2.762 0.535t2.004 1.457 0.734 2.008-0.734 2.008-2.004 1.457-2.762 0.535q-0.672 0-1.375-0.125-0.969 0.688-2.172 1-0.281 0.070-0.672 0.125h-0.023q-0.086 0-0.16-0.062t-0.090-0.164q-0.008-0.023-0.008-0.051t0.004-0.051 0.016-0.047l0.020-0.039t0.027-0.043 0.031-0.039 0.035-0.039 0.031-0.035q0.039-0.047 0.18-0.195t0.203-0.23 0.176-0.227 0.195-0.301 0.16-0.344q-0.969-0.563-1.523-1.383t-0.555-1.75q0-1.086 0.734-2.008t2.004-1.457 2.762-0.535zM11.922 11.133q0.078 0.187 0.16 0.344t0.195 0.301 0.176 0.227 0.203 0.23 0.18 0.195q0.008 0.008 0.031 0.035t0.035 0.039 0.031 0.039 0.027 0.043l0.020 0.039t0.016 0.047 0.004 0.051-0.008 0.051q-0.023 0.109-0.102 0.172t-0.172 0.055q-0.391-0.055-0.672-0.125-1.203-0.312-2.172-1-0.703 0.125-1.375 0.125-2.117 0-3.687-1.031 0.453 0.031 0.688 0.031 1.258 0 2.414-0.352t2.062-1.008q0.977-0.719 1.5-1.656t0.523-1.984q0-0.602-0.18-1.187 1.008 0.555 1.594 1.391t0.586 1.797q0 0.937-0.555 1.754t-1.523 1.379z"></path>
</svg>

<svg xmlns="http://www.w3.org/2000/svg" viewBox="0 0 14 14"><path d="M5.5 3q-1.195 0-2.234.406T1.614 4.508 1 6q0 .64.415 1.234t1.164 1.03l.757.44-.273.655q.266-.157.484-.306l.344-.242.414.078Q4.916 9 5.5 9q1.196 0 2.235-.407T9.387 7.49 10 6t-.613-1.493-1.652-1.102T5.5 3zm0-1q1.492 0 2.762.535t2.004 1.457T11 6t-.734 2.008-2.004 1.457T5.5 10q-.672 0-1.375-.125-.97.688-2.172 1-.28.07-.672.125H1.26q-.086 0-.16-.062t-.09-.164Q1 10.75 1 10.724t.004-.052.016-.047l.02-.04.027-.042.03-.04.036-.038.03-.035q.04-.047.18-.195t.204-.23.176-.227.195-.3.16-.345Q1.108 8.57.555 7.75T0 6q0-1.086.734-2.008t2.004-1.457T5.5 2zm6.422 9.133q.078.187.16.344t.195.3.176.228.203.23.18.195l.03.035.036.04.03.038.028.043.02.04.016.046.004.05-.008.052q-.023.11-.102.172t-.172.055q-.39-.054-.672-.124-1.203-.312-2.172-1Q9.17 12 8.5 12 6.38 12 4.81 10.97q.453.03.688.03 1.258 0 2.414-.35t2.062-1.01q.977-.718 1.5-1.655T12 6q0-.6-.18-1.186 1.007.555 1.593 1.39T14 8.003q0 .937-.556 1.754t-1.523 1.38z" /></svg>
